res/missile.svg

<svg width="130" height="230" xmlns="http://www.w3.org/2000/svg" xmlns:svg="http://www.w3.org/2000/svg">
 <style type="text/css">.st0{fill:none;}
    .st1{fill:#FFE845;}
    .st2{fill:#FFFFFF;}
    .st3{fill:#FF6333;}</style>

 <g>
  <title>Layer 1</title>
  <path id="XMLID_53_" class="st0" d="m56.2,140.8c0,-0.10001 0,-0.3 0,-0.39999l0,0l0,0.39999z"/>
  <path id="XMLID_55_" class="st0" d="m74.2,140.8l0,-0.39999l0,0c0,0.2 0,0.29999 0,0.39999z"/>
  <path id="XMLID_57_" class="st0" d="m37.7,148.5c0,0.3 0.1,0.7 0.1,1l-0.1,-1l0,0z"/>
  <path id="XMLID_58_" class="st0" d="m19.6,148.5l0,1c0,-0.39999 0.1,-0.7 0,-1l0,0z"/>
  <path id="XMLID_59_" class="st0" d="m92.7,159.39999l0,0l-0.1,0.7c0.1,-0.29999 0.1,-0.49998 0.1,-0.7z"/>
  <rect id="XMLID_63_" x="1" y="132" class="st1" width="19" height="1"/>
  <polygon id="XMLID_65_" class="st1" points="56,133 56,131 38,131 38,132.4 38,133 "/>
  <rect id="XMLID_67_" x="74" y="132" class="st1" width="19" height="1"/>
  <path id="XMLID_74_" class="st1" d="m20,148l-0.3,0c0.5,-4 4.3,-8.10001 9,-8.10001s8.5,4.10001 9,8.10001l0.3,0l0,-15l-18,0l0,15z"/>
  <rect id="XMLID_75_" x="20" y="132" class="st1" width="18" height="1"/>
  <g id="svg_1">
   <path class="st1" d="m65.2,1.4c-35.2,0 -63.8,28.4 -64,63.6l-0.2,0l0,67l18.6,0l18.4,0l0,-1l18.2,0l17.8,0l0,1l18.70001,0l0.29999,0l0,1l-19,0l0,7.39999l0,0.40001c0,0.2 0,0.39999 0,0.59999s0,0.40001 0,0.60001l0,41.5c0,5.10001 4.4,9.2 9.5,9.2c5.1,0 9.5,-4.09999 9.5,-9.2l0,-22.60001c0,-0.09999 0,-0.29999 0,-0.39999s0,-0.3 0,-0.39999l0,-0.70001l0,-0.39999l0,-1.2c1.1,-3.5 4.6,-6.7 8.7,-6.7c4.60001,0 8.4,3.89999 9,7.89999l0.3,0l0,0.39999l0,47.3c0,5.10001 3.9,9.2 9,9.2c5.1,0 9,-4.09999 9,-9.2l0,-73.7l0,-2l0,-60.4c0.10001,-1.7 0.2,-3.5 0.2,-5.2c0,-35.4 -28.6,-64 -64,-64z" id="svg_2"/>
   <path class="st1" d="m1,195.10001c0,5.10001 4.1,8.89999 9.2,8.89999l0.2,0c5.1,0 9.6,-3.79999 9.6,-8.89999l0,-45.59999l0,-1l0,-15.50002l-19,0l0,62.10001z" id="svg_3"/>
   <path class="st1" d="m38,148.5l0,1l0,69.90001c0,5.09999 3.9,9.2 9.5,9.2c5.6,0 9.5,-4.10001 9.5,-9.2l0,-77.40001c0,-0.2 0,-0.39999 0,-0.60001c0,-0.2 0,-0.39999 0,-0.59999l0,-0.40001l0,-7.39999l-19,0l0,15.5z" id="svg_4"/>
  </g>
  <path id="XMLID_79_" class="st1" d="m61.2,133l-5.2,0l0,7l0.2,0c0.4,-3 2.3,-5 5,-7z"/>
  <path id="XMLID_80_" class="st1" d="m74.2,140l-0.2,0l0,-7l-4.8,0c2.7,2 4.60001,4 5,7z"/>
  <path id="XMLID_81_" class="st1" d="m61.2,133c1.2,0 2.6,-1 4,-1s2.8,1 4,1l4.8,0l0,-0.60001l0,-1.39999l-18,0l0,2l5.2,0z"/>
  <path id="XMLID_85_" class="st2" d="m92.6,160.5c0,0.10001 0,0.3 0,0.39999l0,-0.89999c0.1,0.2 0,0.3 0,0.5z"/>
  <path id="XMLID_88_" class="st2" d="m56.2,141.39999c0,0.2 0,0.39999 0,0.60001l0,-1.20001c0,0.20001 0,0.40001 0,0.60001z"/>
  <path id="XMLID_89_" class="st2" d="m74.2,140.8l0,1.2c0,-0.2 0,-0.39999 0,-0.59999s0,-0.40001 0,-0.60001z"/>
  <circle id="XMLID_2_" class="st3" cx="65.2" cy="65.4" r="49.1"/>
 </g>
</svg>

<?xml version="1.0" encoding="utf-8"?>
<!-- Generator: Adobe Illustrator 19.0.0, SVG Export Plug-In . SVG Version: 6.00 Build 0)  -->
<svg version="1.1" id="Calque_1" xmlns="http://www.w3.org/2000/svg" xmlns:xlink="http://www.w3.org/1999/xlink" x="0px" y="0px"
	 viewBox="0 0 130 230" style="enable-background:new 0 0 130 230;" xml:space="preserve">
<style type="text/css">
	.st0{fill:none;}
	.st1{fill:#FFE845;}
	.st2{fill:#FFFFFF;}
	.st3{fill:#FF6333;}
</style>
<path id="XMLID_53_" class="st0" d="M56.2,140.8c0-0.1,0-0.3,0-0.4h0V140.8z"/>
<path id="XMLID_55_" class="st0" d="M74.2,140.8v-0.4h0C74.2,140.6,74.2,140.7,74.2,140.8z"/>
<path id="XMLID_57_" class="st0" d="M37.7,148.5c0,0.3,0.1,0.7,0.1,1L37.7,148.5L37.7,148.5z"/>
<path id="XMLID_58_" class="st0" d="M19.6,148.5v1C19.6,149.1,19.7,148.8,19.6,148.5L19.6,148.5z"/>
<path id="XMLID_59_" class="st0" d="M92.7,159.4L92.7,159.4l-0.1,0.7C92.7,159.8,92.7,159.6,92.7,159.4z"/>
<rect id="XMLID_63_" x="1" y="132" class="st1" width="19" height="1"/>
<polygon id="XMLID_65_" class="st1" points="56,133 56,131 38,131 38,132.4 38,133 "/>
<rect id="XMLID_67_" x="74" y="132" class="st1" width="19" height="1"/>
<path id="XMLID_74_" class="st1" d="M20,148h-0.3c0.5-4,4.3-8.1,9-8.1s8.5,4.1,9,8.1H38v-15H20V148z"/>
<rect id="XMLID_75_" x="20" y="132" class="st1" width="18" height="1"/>
<g>
	<path class="st1" d="M65.2,1.4C30,1.4,1.4,29.8,1.2,65H1v67h18.6H38v-1h18.2H74v1h18.7H93v1H74v7.4v0.4c0,0.2,0,0.4,0,0.6
		s0,0.4,0,0.6v41.5c0,5.1,4.4,9.2,9.5,9.2c5.1,0,9.5-4.1,9.5-9.2v-22.6c0-0.1,0-0.3,0-0.4s0-0.3,0-0.4v-0.7V159v-1.2
		c1.1-3.5,4.6-6.7,8.7-6.7c4.6,0,8.4,3.9,9,7.9h0.3v0.4v47.3c0,5.1,3.9,9.2,9,9.2c5.1,0,9-4.1,9-9.2V133v-2V70.6
		c0.1-1.7,0.2-3.5,0.2-5.2C129.2,30,100.6,1.4,65.2,1.4z"/>
	<path class="st1" d="M1,195.1c0,5.1,4.1,8.9,9.2,8.9h0.2c5.1,0,9.6-3.8,9.6-8.9v-45.6v-1V133H1V195.1z"/>
	<path class="st1" d="M38,148.5v1v69.9c0,5.1,3.9,9.2,9.5,9.2c5.6,0,9.5-4.1,9.5-9.2V142c0-0.2,0-0.4,0-0.6c0-0.2,0-0.4,0-0.6v-0.4
		V133H38V148.5z"/>
</g>
<path id="XMLID_79_" class="st1" d="M61.2,133H56v7h0.2C56.6,137,58.5,135,61.2,133z"/>
<path id="XMLID_80_" class="st1" d="M74.2,140H74v-7h-4.8C71.9,135,73.8,137,74.2,140z"/>
<path id="XMLID_81_" class="st1" d="M61.2,133c1.2,0,2.6-1,4-1s2.8,1,4,1H74v-0.6V131H56v2H61.2z"/>
<path id="XMLID_85_" class="st2" d="M92.6,160.5c0,0.1,0,0.3,0,0.4V160C92.7,160.2,92.6,160.3,92.6,160.5z"/>
<path id="XMLID_88_" class="st2" d="M56.2,141.4c0,0.2,0,0.4,0,0.6v-1.2C56.2,141,56.2,141.2,56.2,141.4z"/>
<path id="XMLID_89_" class="st2" d="M74.2,140.8v1.2c0-0.2,0-0.4,0-0.6S74.2,141,74.2,140.8z"/>
<circle id="XMLID_2_" class="st3" cx="65.2" cy="65.4" r="49.1"/>
</svg>
